public/images/home/why-us/support.svg

<svg width="36" height="37" viewBox="0 0 36 37" fill="none" xmlns="http://www.w3.org/2000/svg">
<g clip-path="url(#clip0)">
<path d="M7.89944 28.2852H5.20312C3.07068 28.2852 1.33594 26.5504 1.33594 24.418V18.309C1.33594 16.1766 3.07068 14.4418 5.20312 14.4418H7.89944C8.86871 14.4418 9.65726 15.2304 9.65726 16.1996V26.5273C9.65726 27.4966 8.86871 28.2852 7.89944 28.2852Z" fill="#FF6B00"/>
<path d="M17.8542 0.740234C11.3264 0.740234 5.97772 5.88486 5.64978 12.3325H7.76328C8.08875 7.04886 12.4899 2.84961 17.8545 2.84961C23.2205 2.84961 27.6233 7.05215 27.9454 12.3388C28.0168 12.3349 28.0885 12.3325 28.1608 12.3325H30.0587C29.7307 5.88486 24.382 0.740234 17.8542 0.740234Z" fill="#434343"/>
<path d="M30.8568 28.2852H28.1605C27.1913 28.2852 26.4027 27.4966 26.4027 26.5273V16.1996C26.4027 15.2304 27.1913 14.4418 28.1605 14.4418H30.8568C32.989 14.4418 34.724 16.1766 34.724 18.309V24.418C34.724 26.5504 32.989 28.2852 30.8568 28.2852Z" fill="#FF6B00"/>
<path d="M24.0883 34.6267H20.707C20.1248 34.6267 19.6523 34.1546 19.6523 33.5721C19.6523 32.9895 20.1248 32.5174 20.707 32.5174H24.0883C26.226 32.5174 27.9651 30.7782 27.9651 28.6406V27.2305C27.9651 26.6479 28.4373 26.1758 29.0198 26.1758C29.6024 26.1758 30.0745 26.6479 30.0745 27.2305V28.6406C30.0745 31.9414 27.3892 34.6267 24.0883 34.6267Z" fill="#434343"/>
<path d="M18.03 36.7402C15.9723 36.7402 14.2982 35.3189 14.2982 33.5721C14.2982 31.8252 15.9723 30.4039 18.03 30.4039C20.0877 30.4039 21.7618 31.8252 21.7618 33.5721C21.7618 35.3189 20.0877 36.7402 18.03 36.7402Z" fill="#434343"/>
<path d="M14.8361 11.7397C16.2009 11.7397 17.5775 12.5986 17.5775 14.1751C17.5775 16.7284 13.9421 17.5636 13.9421 18.6342V18.7402H17.0246C17.3188 18.7402 17.5775 19.105 17.5775 19.5285C17.5775 19.952 17.3188 20.3404 17.0246 20.3404H12.8361C12.5067 20.3404 12.0363 20.1165 12.0363 19.7757V18.6342C12.0363 16.7871 15.7422 15.7283 15.7422 14.2342C15.7422 13.8576 15.5068 13.3987 14.8479 13.3987C14.3774 13.3987 13.9657 13.6341 13.9657 14.2812C13.9657 14.6223 13.601 14.9519 13.0009 14.9519C12.5304 14.9519 12.1774 14.7401 12.1774 13.9988C12.1772 12.5634 13.495 11.7397 14.8361 11.7397Z" fill="#434343"/>
<path d="M21.4246 18.5282H18.6714C18.3303 18.5282 18.0598 18.3049 18.0598 17.8929C18.0598 17.799 18.0831 17.6693 18.1537 17.54L20.8714 12.2102C21.048 11.8691 21.3419 11.7397 21.6364 11.7397C21.9539 11.7397 22.554 12.0103 22.554 12.4338C22.554 12.5044 22.5304 12.575 22.4952 12.6574L20.4128 16.8341H21.4246V16.0107C21.4246 15.6223 21.8833 15.4575 22.3422 15.4575C22.8009 15.4575 23.2599 15.6223 23.2599 16.0107V16.8341H23.7658C24.1423 16.8341 24.3305 17.2576 24.3305 17.6812C24.3305 18.1047 24.0481 18.5282 23.7658 18.5282H23.2599V19.7754C23.2599 20.1517 22.8012 20.3401 22.3422 20.3401C21.8833 20.3401 21.4246 20.1517 21.4246 19.7754V18.5282Z" fill="#434343"/>
</g>
<defs>
<clipPath id="clip0">
<rect width="36" height="36" fill="white" transform="translate(0 0.740234)"/>
</clipPath>
</defs>
</svg>

<svg xmlns="http://www.w3.org/2000/svg" width="36" height="37" fill="none" xmlns:v="https://vecta.io/nano"><g clip-path="url(#A)"><path d="M7.899 28.285H5.203c-2.132 0-3.867-1.735-3.867-3.867v-6.109c0-2.132 1.735-3.867 3.867-3.867h2.696A1.76 1.76 0 0 1 9.657 16.2v10.328a1.76 1.76 0 0 1-1.758 1.758z" fill="#ff6b00"/><path d="M17.854.74A12.24 12.24 0 0 0 5.65 12.333h2.114C8.089 7.049 12.49 2.85 17.855 2.85s9.769 4.203 10.091 9.489c.071-.004.143-.006.215-.006h1.898A12.24 12.24 0 0 0 17.854.74z" fill="#434343"/><path d="M30.857 28.285h-2.696a1.76 1.76 0 0 1-1.758-1.758V16.2a1.76 1.76 0 0 1 1.758-1.758h2.696c2.132 0 3.867 1.735 3.867 3.867v6.109c0 2.132-1.735 3.867-3.867 3.867z" fill="#ff6b00"/><g fill="#434343"><path d="M24.088 34.627h-3.381c-.582 0-1.055-.472-1.055-1.055s.473-1.055 1.055-1.055h3.381c2.138 0 3.877-1.739 3.877-3.877v-1.41c0-.583.472-1.055 1.055-1.055s1.055.472 1.055 1.055v1.41c0 3.301-2.685 5.986-5.986 5.986z"/><path d="M18.03 36.74c-2.058 0-3.732-1.421-3.732-3.168s1.674-3.168 3.732-3.168 3.732 1.421 3.732 3.168-1.674 3.168-3.732 3.168zm-3.194-25c1.365 0 2.741.859 2.741 2.435 0 2.553-3.635 3.389-3.635 4.459v.106h3.082c.294 0 .553.365.553.788s-.259.812-.553.812h-4.188c-.329 0-.8-.224-.8-.565v-1.142c0-1.847 3.706-2.906 3.706-4.4 0-.377-.235-.835-.894-.835-.47 0-.882.235-.882.883 0 .341-.365.671-.965.671-.47 0-.823-.212-.823-.953 0-1.435 1.318-2.259 2.659-2.259zm6.589 6.788h-2.753c-.341 0-.612-.223-.612-.635a.75.75 0 0 1 .094-.353l2.718-5.33c.177-.341.47-.471.765-.471.318 0 .918.271.918.694 0 .071-.024.141-.059.224l-2.082 4.177h1.012v-.823c0-.388.459-.553.918-.553s.918.165.918.553v.823h.506c.377 0 .565.424.565.847s-.282.847-.565.847h-.506v1.247c0 .376-.459.565-.918.565s-.918-.188-.918-.565v-1.247z"/></g></g><defs><clipPath id="A"><path fill="#fff" transform="translate(0 .74)" d="M0 0h36v36H0z"/></clipPath></defs></svg>
